X:100
T:Waltz
O:No 100 Wm Clarke MS  Feltwell, Norfolk
I:abc2nwc
M:3/4
L:1/8
K:F
(Ac)|(dc) c2(Ac)|(dc) c2(Ac)|ba bg eg|fe fg ab|
d'c' c'2ac'|d'c' c'2ac'|ba bg eg|f2z2:|
|:cd|ca f2cd|ca f2cd|gc fc ec|fa f2cd|
ca f2cd|ca f2cd|gd fc ec|f2z2:|
|:Ac|fe dc BA|G2g2cg|bg dg bg|fa f2Ac|
fe dc BA|G2g2cg|bg eg bg|f2z2:|
|:ac'|bd' g3b|ac' f3a|eg ce ge|fe fg ac'|
bd' g3b|ac' f3a|eg ce ge|f4:|

